X:1
T:Meine Seel' erhebt den Herren
T:Meine Seel' erhebt den Herren
T:BWV 324
T:Johann Sebastian Bach
C:Johann Sebastian Bach
%%score 1 2 3 4
L:1/8
Q:1/4=120
M:4/4
K:Gmin
V:1 treble 
V:2 treble 
V:3 bass 
V:4 bass 
V:1
 d4 f4 | d2 d2 d2 d2 | e4 d4 | c4 c4 | !fermata!B8 | d4 f4 | c2 c2 c2 G2 | B4 A4 | !fermata!G8 | %9
 d4 f4 | d2 d2 d2 d2 | e4 d4 | c4 c4 | !fermata!B8 | d4 f4 | c2 c2 c2 c2 | c4 G2 A2 | B4 A4 | G8- | %19
 G8- | G8 | !fermata!G8 |] %22
V:2
 G4 F4 | F2 ^F2 G2 A2 | G2 F4 G2 | G4 F4 | !fermata!F8 | F8 | F2 F2 E2 G2 | G4 ^F4 | !fermata!D8 | %9
 G4 A4 | F6 ^F2 | G2 A2 B4- | B2 B2 B2 A2 | !fermata!F8 | z8 | F2 G2 A2 B2 | c4 C4 | D4 D2 C2 | %18
 =B,2 D2 G2 F2 | E8- | E4 D2 C2 | !fermata!D8 |] %22
V:3
 B,4 C4 | D2 C2 B,2 A,2 | B,2 C4 B,2 | B,4 A,4 | !fermata!D8 | B,8 | A,2 C2 C2 C2 | D6 C2 | %8
 !fermata!B,8 | B,4 C4 | D2 C2 D4 | D2 C2 B,2 F2 | G4 F2 C2 | !fermata!D8 | z4 F,2 G,2 | %15
 A,2 B,2 C4- | C2 D2 =E2 ^F2 | G4 =F2 E2 | D2 =B,2 C2 D2- | D2 G,2 C4- | C4 =B,2 A,2 | %21
 !fermata!=B,8 |] %22
V:4
 G,4 A,4 | B,2 A,2 G,2 ^F,2 | G,2 A,2 B,2 G,2 | E,2 C,2 F,4 | !fermata!B,,8 | B,4 D,4 | %6
 F,2 A,2 G,2 E,2 | D,2 C,2 D,4 | !fermata!G,,8 | G,4 F,4 | B,2 C2 B,2 A,2 | B,2 C2 F,2 D,2 | %12
 E,2 C,2 F,4 | !fermata!B,,8 | B,,2 C,2 D,2 E,2 | F,6 G,2 | A,2 B,2 C4 | B,,2 C,2 D,2 E,2 | %18
 F,4 E,2 D,2 | C,2 D,2 E,2 F,2 | G,8 | !fermata!G,,8 |] %22

